trailhead/automation/automation_middle.svg

<?xml version="1.0" encoding="UTF-8" standalone="no"?>
<!-- Created with Inkscape (http://www.inkscape.org/) -->

<svg
   xmlns:dc="http://purl.org/dc/elements/1.1/"
   xmlns:cc="http://creativecommons.org/ns#"
   xmlns:rdf="http://www.w3.org/1999/02/22-rdf-syntax-ns#"
   xmlns:svg="http://www.w3.org/2000/svg"
   xmlns="http://www.w3.org/2000/svg"
   version="1.1"
   width="124.01575"
   height="124.01575"
   id="svg3565">
  <defs
     id="defs3567" />
  <metadata
     id="metadata3570">
    <rdf:RDF>
      <cc:Work
         rdf:about="">
        <dc:format>image/svg+xml</dc:format>
        <dc:type
           rdf:resource="http://purl.org/dc/dcmitype/StillImage" />
        <dc:title></dc:title>
      </cc:Work>
    </rdf:RDF>
  </metadata>
  <g
     transform="translate(0,-928.34644)"
     id="layer1">
    <path
       d="m 61.53125,32.21875 c -3.138142,0 -5.6875,2.549358 -5.6875,5.6875 0,3.138142 2.549358,5.6875 5.6875,5.6875 3.138142,0 5.6875,-2.549358 5.6875,-5.6875 0,-3.138142 -2.549358,-5.6875 -5.6875,-5.6875 z M 35.46875,48.125 c -4.267912,0 -7.6875,3.41959 -7.6875,7.6875 l 0,3.59375 -1.40625,0 c -0.668905,-0.250361 -1.389796,-0.375 -2.125,-0.375 -4.044716,0 -7.34375,4.072724 -7.34375,9.09375 0,5.021026 3.299034,9.09375 7.34375,9.09375 0.735204,0 1.456095,-0.124639 2.125,-0.375 l 1.40625,0 0,4.125 2.53125,0 c -2.840238,1.39315 -4.78125,4.299197 -4.78125,7.6875 0,4.748571 3.813929,8.5625 8.5625,8.5625 l 55.1875,0 c 4.748571,0 8.5625,-3.813929 8.5625,-8.5625 0,-3.388303 -1.941012,-6.29435 -4.78125,-7.6875 l 2.21875,0 0,-4.6875 0.8125,0 0,0.03125 c 0.95635,0.570506 2.023211,0.90625 3.15625,0.90625 4.04472,0 7.3125,-4.072724 7.3125,-9.09375 0,-5.021026 -3.26778,-9.09375 -7.3125,-9.09375 -1.133039,0 -2.1999,0.335744 -3.15625,0.90625 l 0,0.0625 -0.8125,0 0,-4.1875 c 0,-4.26791 -3.450838,-7.6875 -7.71875,-7.6875 l -52.09375,0 z m 10.875,9.46875 c 3.974979,0 7.1875,3.212521 7.1875,7.1875 0,3.974979 -3.212521,7.21875 -7.1875,7.21875 -3.974979,0 -7.1875,-3.243771 -7.1875,-7.21875 0,-3.974979 3.212521,-7.1875 7.1875,-7.1875 z m 30.1875,0 c 3.974979,0 7.1875,3.212521 7.1875,7.1875 0,3.974979 -3.212521,7.21875 -7.1875,7.21875 -3.974979,0 -7.21875,-3.243771 -7.21875,-7.21875 0,-3.974979 3.243771,-7.1875 7.21875,-7.1875 z m -36.34375,26.125 12.5,0 0,9.90625 -12.5,0 0,-9.90625 z m 14.8125,0 12.5,0 0,9.90625 -12.5,0 0,-9.90625 z m 15,0 12.5,0 0,9.90625 -12.5,0 0,-9.90625 z"
       transform="translate(0,928.34644)"
       id="path3937-0-3-7-6"
       style="color:#000000;fill:#808080;fill-opacity:1;fill-rule:nonzero;stroke:none;stroke-width:10;marker:none;visibility:visible;display:inline;overflow:visible;enable-background:accumulate" />
  </g>
</svg>

<?xml version="1.0" encoding="UTF-8" standalone="no"?>
<!-- Created with Inkscape (http://www.inkscape.org/) -->

<svg
   xmlns:dc="http://purl.org/dc/elements/1.1/"
   xmlns:cc="http://creativecommons.org/ns#"
   xmlns:rdf="http://www.w3.org/1999/02/22-rdf-syntax-ns#"
   xmlns:svg="http://www.w3.org/2000/svg"
   xmlns="http://www.w3.org/2000/svg"
   xmlns:sodipodi="http://sodipodi.sourceforge.net/DTD/sodipodi-0.dtd"
   xmlns:inkscape="http://www.inkscape.org/namespaces/inkscape"
   width="124.01575"
   height="124.01575"
   id="svg3565"
   version="1.1"
   inkscape:version="0.48.4 r9939"
   sodipodi:docname="automation_upper.svg">
  <defs
     id="defs3567" />
  <sodipodi:namedview
     id="base"
     pagecolor="#ffffff"
     bordercolor="#666666"
     borderopacity="1.0"
     inkscape:pageopacity="0.0"
     inkscape:pageshadow="2"
     inkscape:zoom="5.6"
     inkscape:cx="106.03353"
     inkscape:cy="38.039852"
     inkscape:document-units="px"
     inkscape:current-layer="layer1"
     showgrid="false"
     units="mm"
     inkscape:window-width="1920"
     inkscape:window-height="1059"
     inkscape:window-x="0"
     inkscape:window-y="0"
     inkscape:window-maximized="1" />
  <metadata
     id="metadata3570">
    <rdf:RDF>
      <cc:Work
         rdf:about="">
        <dc:format>image/svg+xml</dc:format>
        <dc:type
           rdf:resource="http://purl.org/dc/dcmitype/StillImage" />
        <dc:title></dc:title>
      </cc:Work>
    </rdf:RDF>
  </metadata>
  <g
     inkscape:label="Layer 1"
     inkscape:groupmode="layer"
     id="layer1"
     transform="translate(0,-928.34644)">
    <path
       style="opacity:1;color:#000000;fill:#808080;fill-opacity:1;fill-rule:nonzero;stroke:none;stroke-width:10;marker:none;visibility:visible;display:inline;overflow:visible;enable-background:accumulate"
       d="M 61.53125 32.21875 C 58.393108 32.21875 55.84375 34.768108 55.84375 37.90625 C 55.84375 40.411332 57.466989 42.555117 59.71875 43.3125 L 59.71875 48.125 L 35.46875 48.125 C 31.200838 48.125 27.78125 51.54459 27.78125 55.8125 L 27.78125 59.40625 L 26.375 59.40625 C 25.706095 59.155889 24.985204 59.03125 24.25 59.03125 C 20.205284 59.03125 16.90625 63.103974 16.90625 68.125 C 16.90625 73.146026 20.205284 77.21875 24.25 77.21875 C 24.985204 77.21875 25.706095 77.094111 26.375 76.84375 L 27.78125 76.84375 L 27.78125 80.96875 L 30.3125 80.96875 C 27.472262 82.3619 25.53125 85.267947 25.53125 88.65625 C 25.53125 93.404821 29.345179 97.21875 34.09375 97.21875 L 89.28125 97.21875 C 94.029821 97.21875 97.84375 93.404821 97.84375 88.65625 C 97.84375 85.267947 95.902738 82.3619 93.0625 80.96875 L 95.28125 80.96875 L 95.28125 76.28125 L 96.09375 76.28125 L 96.09375 76.3125 C 97.0501 76.883006 98.116961 77.21875 99.25 77.21875 C 103.29472 77.21875 106.5625 73.146026 106.5625 68.125 C 106.5625 63.103974 103.29472 59.03125 99.25 59.03125 C 98.116961 59.03125 97.0501 59.366994 96.09375 59.9375 L 96.09375 60 L 95.28125 60 L 95.28125 55.8125 C 95.28125 51.54459 91.830412 48.125 87.5625 48.125 L 63.40625 48.125 L 63.40625 43.28125 C 65.624249 42.50506 67.21875 40.387193 67.21875 37.90625 C 67.21875 34.768108 64.669392 32.21875 61.53125 32.21875 z M 46.34375 57.59375 C 50.318729 57.59375 53.53125 60.806271 53.53125 64.78125 C 53.53125 68.756229 50.318729 72 46.34375 72 C 42.368771 72 39.15625 68.756229 39.15625 64.78125 C 39.15625 60.806271 42.368771 57.59375 46.34375 57.59375 z M 76.53125 57.59375 C 80.506229 57.59375 83.71875 60.806271 83.71875 64.78125 C 83.71875 68.756229 80.506229 72 76.53125 72 C 72.556271 72 69.3125 68.756229 69.3125 64.78125 C 69.3125 60.806271 72.556271 57.59375 76.53125 57.59375 z M 40.1875 83.71875 L 52.6875 83.71875 L 52.6875 93.625 L 40.1875 93.625 L 40.1875 83.71875 z M 55 83.71875 L 67.5 83.71875 L 67.5 93.625 L 55 93.625 L 55 83.71875 z M 70 83.71875 L 82.5 83.71875 L 82.5 93.625 L 70 93.625 L 70 83.71875 z "
       transform="translate(0,928.34644)"
       id="path3937-0-3-7-6" />
  </g>
</svg>
